dist/assets/img/questions/6/answers/2_1200.svg

<svg width="463" height="251" viewBox="0 0 463 251" fill="none" xmlns="http://www.w3.org/2000/svg">
<g filter="url(#filter0_di_1419_51568)">
<path fill-rule="evenodd" clip-rule="evenodd" d="M74.4667 28C70.3243 28 66.867 31.1622 66.4984 35.2883L64.9859 52.2226C64.7312 55.0734 62.9567 57.5382 60.4434 58.9074C51.9279 63.5464 42.817 70.832 40.0032 80.5354C39.9832 80.6045 40.0598 80.6608 40.1197 80.6211C42.91 78.7742 47.4645 75.7596 53.0842 73.2308C58.0199 71.0098 62.9313 75.2255 62.4497 80.6165L50.7781 211.288C50.3601 215.969 54.0472 220 58.7464 220H398.533C402.676 220 406.133 216.838 406.502 212.712L422.222 36.7117C422.64 32.0311 418.953 28 414.254 28H74.4667Z" fill="#FFF0CB"/>
</g>
<defs>
<filter id="filter0_di_1419_51568" x="0" y="0" width="462.254" height="272" filterUnits="userSpaceOnUse" color-interpolation-filters="sRGB">
<feFlood flood-opacity="0" result="BackgroundImageFix"/>
<feColorMatrix in="SourceAlpha" type="matrix" values="0 0 0 0 0 0 0 0 0 0 0 0 0 0 0 0 0 0 127 0" result="hardAlpha"/>
<feOffset dy="12"/>
<feGaussianBlur stdDeviation="20"/>
<feComposite in2="hardAlpha" operator="out"/>
<feColorMatrix type="matrix" values="0 0 0 0 1 0 0 0 0 1 0 0 0 0 1 0 0 0 1 0"/>
<feBlend mode="normal" in2="BackgroundImageFix" result="effect1_dropShadow_1419_51568"/>
<feBlend mode="normal" in="SourceGraphic" in2="effect1_dropShadow_1419_51568" result="shape"/>
<feColorMatrix in="SourceAlpha" type="matrix" values="0 0 0 0 0 0 0 0 0 0 0 0 0 0 0 0 0 0 127 0" result="hardAlpha"/>
<feOffset dy="-4"/>
<feGaussianBlur stdDeviation="4"/>
<feComposite in2="hardAlpha" operator="arithmetic" k2="-1" k3="1"/>
<feColorMatrix type="matrix" values="0 0 0 0 0.883659 0 0 0 0 0.635314 0 0 0 0 0.0558422 0 0 0 0.4 0"/>
<feBlend mode="normal" in2="shape" result="effect2_innerShadow_1419_51568"/>
</filter>
</defs>
</svg>

<svg width="463" height="251" viewBox="0 0 463 251" fill="none" xmlns="http://www.w3.org/2000/svg"><g filter="url(#filter0_di_1419_51568)"><path fill-rule="evenodd" clip-rule="evenodd" d="M74.467 28a8 8 0 00-7.969 7.288l-1.512 16.935c-.255 2.85-2.03 5.315-4.543 6.684-8.515 4.64-17.626 11.925-20.44 21.628-.02.07.057.126.117.086 2.79-1.847 7.345-4.861 12.964-7.39 4.936-2.221 9.847 1.995 9.366 7.386l-11.672 130.67c-.418 4.681 3.27 8.712 7.968 8.712h339.787a8 8 0 007.969-7.288l15.72-176c.418-4.68-3.269-8.712-7.968-8.712H74.467z" fill="#FFF0CB"/></g><defs><filter id="filter0_di_1419_51568" x="0" y="0" width="462.254" height="272" filterUnits="userSpaceOnUse" color-interpolation-filters="sRGB"><feFlood flood-opacity="0" result="BackgroundImageFix"/><feColorMatrix in="SourceAlpha" values="0 0 0 0 0 0 0 0 0 0 0 0 0 0 0 0 0 0 127 0" result="hardAlpha"/><feOffset dy="12"/><feGaussianBlur stdDeviation="20"/><feComposite in2="hardAlpha" operator="out"/><feColorMatrix values="0 0 0 0 1 0 0 0 0 1 0 0 0 0 1 0 0 0 1 0"/><feBlend in2="BackgroundImageFix" result="effect1_dropShadow_1419_51568"/><feBlend in="SourceGraphic" in2="effect1_dropShadow_1419_51568" result="shape"/><feColorMatrix in="SourceAlpha" values="0 0 0 0 0 0 0 0 0 0 0 0 0 0 0 0 0 0 127 0" result="hardAlpha"/><feOffset dy="-4"/><feGaussianBlur stdDeviation="4"/><feComposite in2="hardAlpha" operator="arithmetic" k2="-1" k3="1"/><feColorMatrix values="0 0 0 0 0.883659 0 0 0 0 0.635314 0 0 0 0 0.0558422 0 0 0 0.4 0"/><feBlend in2="shape" result="effect2_innerShadow_1419_51568"/></filter></defs></svg>
